papirus/48x48/apps/color-picker.svg

<svg height="48" viewBox="0 0 48 48.000001" width="48" xmlns="http://www.w3.org/2000/svg"><g transform="translate(0 -1004.3622)"><path d="m30.216836 1019.3169c-1.566924-1.5669-4.089881-1.5669-5.656854 0l-12.727883 12.728c-1.048649 1.0486-1.379647 2.5213-1.024779 3.8531l-4.6321155 4.6321c-1.5669232 1.567-1.5669515 4.0899.0000226 5.6569 1.5669239 1.5669 4.0898809 1.5669 5.6568539 0l4.632116-4.6321c1.331854.3549 2.804524.024 3.853143-1.0248l12.727933-12.7279c1.566972-1.5669 1.566951-4.0899.000027-5.6568z" fill="#ccc"/><path d="m27.388724 1018.1415c-1.022476 0-2.044646.3923-2.828132 1.1758l-12.728559 12.7285c-.905528.9055-1.273186 2.1266-1.128862 3.3008.106569-.8404.479595-1.6515 1.128867-2.3008l12.728558-12.7286c1.566903-1.5668 4.089274-1.5668 5.656199.0001l2.828125 2.8281c.655288.6552 1.019723 1.4784 1.126993 2.3281.149236-1.1824-.215221-2.4164-1.126927-3.3281l-2.828126-2.8282c-.783533-.7834-1.80566-1.1757-2.828136-1.1757zm-16.708988 17.8828l-4.503917 4.5059c-.9117287.9117-1.2762168 2.1457-1.1269416 3.3281.1072504-.8498.471752-1.6729 1.1269465-2.3281l4.6308421-4.6328c-.07632-.2867-.114451-.5791-.12693-.8731z" fill="#fff" opacity=".2"/><path d="m34.171908 1024.4735c-.107251.8498-.471731 1.6729-1.126946 2.3281l-12.728559 12.7286c-1.048619 1.0488-2.51969 1.3803-3.851543 1.0254l-4.632822 4.6308c-1.566973 1.5669-4.0892747 1.5669-5.65627 0-.6551676-.6553-1.0196515-1.4784-1.1269224-2.3281-.1492356 1.1824.215261 2.4163 1.1269274 3.3281 1.5669946 1.5669 4.089296 1.5669 5.656269 0l4.632822-4.6308c1.331854.3549 2.802925.023 3.851544-1.0254l12.728559-12.7286c.911686-.9116 1.276144-2.1457 1.126941-3.3281zm-23.468742 9.8731c-.02851.2247-.03306.4514-.02343.6777l.126925-.1269c-.04861-.1816-.0807-.3653-.10349-.5508z" opacity=".3"/><rect fill="#ffbc48" height="24" rx="8" transform="matrix(.70710678 .70710678 -.70710678 .70710678 0 0)" width="18" x="735.13245" y="688.39935"/><path d="m42.443359 14.455078c-.117464 1.875106-.887127 3.717206-2.326171 5.15625l-5.658204 5.658203c-3.133897 3.133898-8.178602 3.133898-11.3125 0l-1.414062-1.416015c-1.439044-1.439045-2.210661-3.281145-2.328125-5.15625-.138345 2.20843.633272 4.461397 2.328125 6.15625l1.414062 1.414062c3.133898 3.133897 8.178603 3.133897 11.3125 0l5.658204-5.65625c1.694852-1.694853 2.464516-3.94782 2.326171-6.15625z" opacity=".3" transform="translate(0 1004.3622)"/><path d="m33.044922 5.5332031c-2.044953 0-4.089302.7826608-5.65625 2.3496094l-5.65625 5.6582035c-1.694853 1.694853-2.46647 3.94782-2.328125 6.15625.117464-1.875106.889081-3.717206 2.328125-5.15625l5.65625-5.6562504c3.133897-3.1338972 8.178603-3.1338972 11.3125 0l1.416016 1.4140624c1.439044 1.439044 2.208707 3.281144 2.326171 5.15625.138345-2.20843-.631319-4.461397-2.326171-6.1562499l-1.416016-1.4160156c-1.566949-1.5669486-3.611297-2.3496094-5.65625-2.3496094z" fill="#fff" opacity=".2" transform="translate(0 1004.3622)"/><rect fill="#ffbc48" height="6" rx="1" transform="matrix(.70710678 .70710678 -.70710678 .70710678 0 0)" width="24" x="732.13245" y="706.39935"/><rect fill="#4e79ff" height="16" rx="2" transform="matrix(.70710678 .70710678 -.70710678 .70710678 0 0)" width="4" x="742.13245" y="717.39935"/><path d="m18.195333 1017.6083c-.255584 0-.511173.099-.70704.2949l-2.828074 2.8281c-.330572.3306-.365966.8234-.138703 1.2071.04197-.071.07719-.1456.138635-.207l2.828145-2.8282c.391737-.3917 1.02233-.3917 1.414068 0l15.555663 15.5557c.06161.062.09642.1374.138473.2092.22724-.3837.191826-.8765-.138704-1.207l-15.556639-15.5567c-.19587-.1958-.451374-.2949-.707028-.2949z" fill="#fff" opacity=".2"/><path d="m14.521512 1020.9384c-.226646.3836-.191575.8767.138702 1.207l15.556642 15.5566c.391737.3917 1.02233.3917 1.414067 0l2.828073-2.8281c.33029-.3303.365329-.8234.138703-1.207-.04208.071-.07747.1458-.138706.207l-2.828073 2.8281c-.391737.3917-1.02233.3918-1.414067 0l-15.556641-15.5566c-.06121-.061-.09648-.1361-.13891-.2068z" opacity=".3"/></g></svg>

<?xml version="1.0" encoding="UTF-8" standalone="no"?>
<!-- Created with Inkscape (http://www.inkscape.org/) -->

<svg
   xmlns:dc="http://purl.org/dc/elements/1.1/"
   xmlns:cc="http://creativecommons.org/ns#"
   xmlns:rdf="http://www.w3.org/1999/02/22-rdf-syntax-ns#"
   xmlns:svg="http://www.w3.org/2000/svg"
   xmlns="http://www.w3.org/2000/svg"
   xmlns:sodipodi="http://sodipodi.sourceforge.net/DTD/sodipodi-0.dtd"
   xmlns:inkscape="http://www.inkscape.org/namespaces/inkscape"
   width="48"
   height="48"
   viewBox="0 0 48 48.000001"
   id="svg2"
   version="1.1"
   inkscape:version="0.91 r13725"
   sodipodi:docname="color-picker.svg">
  <defs
     id="defs4" />
  <sodipodi:namedview
     id="base"
     pagecolor="#c0c0c0"
     bordercolor="#666666"
     borderopacity="1.0"
     inkscape:pageopacity="0"
     inkscape:pageshadow="2"
     inkscape:zoom="1"
     inkscape:cx="12.979362"
     inkscape:cy="23.357965"
     inkscape:document-units="px"
     inkscape:current-layer="layer1"
     showgrid="false"
     units="px"
     showborder="true"
     inkscape:window-width="1535"
     inkscape:window-height="876"
     inkscape:window-x="65"
     inkscape:window-y="24"
     inkscape:window-maximized="1" />
  <metadata
     id="metadata7">
    <rdf:RDF>
      <cc:Work
         rdf:about="">
        <dc:format>image/svg+xml</dc:format>
        <dc:type
           rdf:resource="http://purl.org/dc/dcmitype/StillImage" />
        <dc:title></dc:title>
      </cc:Work>
    </rdf:RDF>
  </metadata>
  <g
     inkscape:label="Layer 1"
     inkscape:groupmode="layer"
     id="layer1"
     transform="translate(0,-1004.3622)">
    <path
       inkscape:connector-curvature="0"
       style="opacity:1;fill:#cccccc;fill-opacity:1;stroke:none;stroke-width:10;stroke-linecap:round;stroke-linejoin:round;stroke-miterlimit:4;stroke-dasharray:none;stroke-opacity:1"
       d="m 30.216836,1019.3169 c -1.566924,-1.5669 -4.089881,-1.5669 -5.656854,0 l -12.727883,12.728 c -1.048649,1.0486 -1.379647,2.5213 -1.024779,3.8531 l -4.6321155,4.6321 c -1.5669232,1.567 -1.5669515,4.0899 2.26e-5,5.6569 1.5669239,1.5669 4.0898809,1.5669 5.6568539,0 l 4.632116,-4.6321 c 1.331854,0.3549 2.804524,0.024 3.853143,-1.0248 l 12.727933,-12.7279 c 1.566972,-1.5669 1.566951,-4.0899 2.7e-5,-5.6568 l -2.828464,-2.8285 z"
       id="rect4136" />
    <path
       inkscape:connector-curvature="0"
       style="opacity:0.2;fill:#ffffff;fill-opacity:1;stroke:none;stroke-width:10;stroke-linecap:round;stroke-linejoin:round;stroke-miterlimit:4;stroke-dasharray:none;stroke-opacity:1"
       d="m 27.388724,1018.1415 c -1.022476,0 -2.044646,0.3923 -2.828132,1.1758 l -12.728559,12.7285 c -0.905528,0.9055 -1.273186,2.1266 -1.128862,3.3008 0.106569,-0.8404 0.479595,-1.6515 1.128867,-2.3008 l 12.728558,-12.7286 c 1.566903,-1.5668 4.089274,-1.5668 5.656199,1e-4 l 2.828125,2.8281 c 0.655288,0.6552 1.019723,1.4784 1.126993,2.3281 0.149236,-1.1824 -0.215221,-2.4164 -1.126927,-3.3281 l -2.828126,-2.8282 c -0.783533,-0.7834 -1.80566,-1.1757 -2.828136,-1.1757 z m -16.708988,17.8828 -4.503917,4.5059 c -0.9117287,0.9117 -1.2762168,2.1457 -1.1269416,3.3281 0.1072504,-0.8498 0.471752,-1.6729 1.1269465,-2.3281 l 4.6308421,-4.6328 c -0.07632,-0.2867 -0.114451,-0.5791 -0.12693,-0.8731 z"
       id="path4199" />
    <path
       inkscape:connector-curvature="0"
       style="opacity:0.3;fill:#000000;fill-opacity:1;stroke:none;stroke-width:10;stroke-linecap:round;stroke-linejoin:round;stroke-miterlimit:4;stroke-dasharray:none;stroke-opacity:1"
       d="m 34.171908,1024.4735 c -0.107251,0.8498 -0.471731,1.6729 -1.126946,2.3281 l -12.728559,12.7286 c -1.048619,1.0488 -2.51969,1.3803 -3.851543,1.0254 l -4.632822,4.6308 c -1.566973,1.5669 -4.0892747,1.5669 -5.65627,0 -0.6551676,-0.6553 -1.0196515,-1.4784 -1.1269224,-2.3281 -0.1492356,1.1824 0.215261,2.4163 1.1269274,3.3281 1.5669946,1.5669 4.089296,1.5669 5.656269,0 l 4.632822,-4.6308 c 1.331854,0.3549 2.802925,0.023 3.851544,-1.0254 l 12.728559,-12.7286 c 0.911686,-0.9116 1.276144,-2.1457 1.126941,-3.3281 z m -23.468742,9.8731 c -0.02851,0.2247 -0.03306,0.4514 -0.02343,0.6777 l 0.126925,-0.1269 c -0.04861,-0.1816 -0.0807,-0.3653 -0.10349,-0.5508 z"
       id="path4204" />
    <rect
       rx="8"
       ry="8"
       y="688.39935"
       x="735.13245"
       height="24"
       width="18"
       id="rect4140"
       style="opacity:1;fill:#ffbc48;fill-opacity:1;stroke:none;stroke-width:10;stroke-linecap:round;stroke-linejoin:round;stroke-miterlimit:4;stroke-dasharray:none;stroke-opacity:1"
       transform="matrix(0.70710678,0.70710678,-0.70710678,0.70710678,0,0)" />
    <path
       style="opacity:0.3;fill:#000000;fill-opacity:1;stroke:none;stroke-width:10;stroke-linecap:round;stroke-linejoin:round;stroke-miterlimit:4;stroke-dasharray:none;stroke-opacity:1"
       d="M 42.443359 14.455078 C 42.325895 16.330184 41.556232 18.172284 40.117188 19.611328 L 34.458984 25.269531 C 31.325087 28.403429 26.280382 28.403429 23.146484 25.269531 L 21.732422 23.853516 C 20.293378 22.414471 19.521761 20.572371 19.404297 18.697266 C 19.265952 20.905696 20.037569 23.158663 21.732422 24.853516 L 23.146484 26.267578 C 26.280382 29.401475 31.325087 29.401475 34.458984 26.267578 L 40.117188 20.611328 C 41.81204 18.916475 42.581704 16.663508 42.443359 14.455078 z "
       transform="translate(0,1004.3622)"
       id="rect4311" />
    <path
       style="opacity:0.2;fill:#ffffff;fill-opacity:1;stroke:none;stroke-width:10;stroke-linecap:round;stroke-linejoin:round;stroke-miterlimit:4;stroke-dasharray:none;stroke-opacity:1"
       d="M 33.044922 5.5332031 C 30.999969 5.5332031 28.95562 6.3158639 27.388672 7.8828125 L 21.732422 13.541016 C 20.037569 15.235869 19.265952 17.488836 19.404297 19.697266 C 19.521761 17.82216 20.293378 15.98006 21.732422 14.541016 L 27.388672 8.8847656 C 30.522569 5.7508684 35.567275 5.7508684 38.701172 8.8847656 L 40.117188 10.298828 C 41.556232 11.737872 42.325895 13.579972 42.443359 15.455078 C 42.581704 13.246648 41.81204 10.993681 40.117188 9.2988281 L 38.701172 7.8828125 C 37.134223 6.3158639 35.089875 5.5332031 33.044922 5.5332031 z "
       transform="translate(0,1004.3622)"
       id="rect4306" />
    <rect
       style="opacity:1;fill:#ffbc48;fill-opacity:1;stroke:none;stroke-width:10;stroke-linecap:round;stroke-linejoin:round;stroke-miterlimit:4;stroke-dasharray:none;stroke-opacity:1"
       id="rect4142"
       width="24"
       height="6"
       x="732.13245"
       y="706.39935"
       ry="1"
       rx="1"
       transform="matrix(0.70710678,0.70710678,-0.70710678,0.70710678,0,0)" />
    <rect
       style="opacity:1;fill:#4e79ff;fill-opacity:1;stroke:none;stroke-width:10;stroke-linecap:round;stroke-linejoin:round;stroke-miterlimit:4;stroke-dasharray:none;stroke-opacity:1"
       id="rect4151"
       width="4"
       height="16"
       x="742.13245"
       y="717.39935"
       rx="2"
       ry="2"
       transform="matrix(0.70710678,0.70710678,-0.70710678,0.70710678,0,0)" />
    <path
       inkscape:connector-curvature="0"
       style="opacity:0.2;fill:#ffffff;fill-opacity:1;stroke:none;stroke-width:10;stroke-linecap:round;stroke-linejoin:round;stroke-miterlimit:4;stroke-dasharray:none;stroke-opacity:1"
       d="m 18.195333,1017.6083 c -0.255584,0 -0.511173,0.099 -0.70704,0.2949 l -2.828074,2.8281 c -0.330572,0.3306 -0.365966,0.8234 -0.138703,1.2071 0.04197,-0.071 0.07719,-0.1456 0.138635,-0.207 l 2.828145,-2.8282 c 0.391737,-0.3917 1.02233,-0.3917 1.414068,0 l 15.555663,15.5557 c 0.06161,0.062 0.09642,0.1374 0.138473,0.2092 0.22724,-0.3837 0.191826,-0.8765 -0.138704,-1.207 l -15.556639,-15.5567 c -0.19587,-0.1958 -0.451374,-0.2949 -0.707028,-0.2949 z"
       id="rect4189" />
    <path
       inkscape:connector-curvature="0"
       style="opacity:0.3;fill:#000000;fill-opacity:1;stroke:none;stroke-width:10;stroke-linecap:round;stroke-linejoin:round;stroke-miterlimit:4;stroke-dasharray:none;stroke-opacity:1"
       d="m 14.521512,1020.9384 c -0.226646,0.3836 -0.191575,0.8767 0.138702,1.207 l 15.556642,15.5566 c 0.391737,0.3917 1.02233,0.3917 1.414067,0 l 2.828073,-2.8281 c 0.33029,-0.3303 0.365329,-0.8234 0.138703,-1.207 -0.04208,0.071 -0.07747,0.1458 -0.138706,0.207 l -2.828073,2.8281 c -0.391737,0.3917 -1.02233,0.3918 -1.414067,0 l -15.556641,-15.5566 c -0.06121,-0.061 -0.09648,-0.1361 -0.13891,-0.2068 z"
       id="rect4194" />
  </g>
</svg>
